!!!!SEGMENT: pl-wtm--r-1461--022_stefani-jozef--wszechstronne-cwiczenia-glosowe-con-moto.krn
!!!cenid: 18xx:2199
!!!COM: Stefani, Józef
!!!COM-rismid: pe30024097
!!!CDT: 1800/04/16-1876/03/19
!!!CNT: Polish
!!!GTL: Wszechstronne ćwiczenia głosowe
!!!OTL: Con moto
!!!PDT:
!!!AGN: Secular
!!!SMS-siglum: PL-Wtm
!!!SMS-shelfmark: R 1461
!!!SMS-shelfwork: 022 G
!!!SMS-variant:
!!!SMS-altvar:
!!!NIFC-rismid: 1001120710
!!!URL-scan: http://repozytorium.nifc.pl/skany/pl-wtm-nut--r1461
!!!ONB-nifc: UWAGA: skan 0019, s. 35 – 0020, s. 37
!!!AIN: 1 forte 1 tenor
!!!key:
**kern	**kern	**dynam	**kern	**dynam
*part2	*part2	*part2	*part1	*part1
*staff3	*staff2	*	*staff1	*
*Iforte	*Iforte	*	*Itenor	*
*I"Fortepian	*I"Fortepian	*	*I"Sopran/Tenor	*
*clefF4	*clefG2	*	*clefG2	*
*k[]	*k[]	*	*k[]	*
*C:	*C:	*	*C:	*
*M4/4	*M4/4	*	*M4/4	*
*met(c)	*met(c)	*	*met(c)	*
=1	=1	=1	=1	=1
*all\right	*all\right	*	*all\right	*
*2\right	*2\right	*	*2\right	*
!	!	!LO:DY:rj	!LO:TX:a:i:t=Con moto.	!
4C\	4c 4G< 4E</	p	4c/	.
4r	4r	.	(<32d/LLL	.
.	.	.	32c/	.
.	.	.	32d/	.
.	.	.	32c/	.
.	.	.	32d/	.
.	.	.	32c/	.
.	.	.	32d/)	.
.	.	.	32c/JJJ	.
!	!	!	!	!LO:HP:b
4C\	4g 4c 4G</	.	4e/	<
4r	4r	.	(<32f/LLL	.
.	.	.	32e/	.
.	.	.	32f/	.
.	.	.	32e/	.
.	.	.	32f/	.
.	.	.	32e/	.
.	.	.	32f/	.
.	.	.	32e/JJJ)	.
=2	=2	=2	=2	=2
4C/	4g 4e 4c/	.	4g/	.
4r	4r	.	(<32a/LLL	.
.	.	.	32g/	.
.	.	.	32a/	.
.	.	.	32g/	.
.	.	.	32a/	.
.	.	.	32g/	.
.	.	.	32a/	.
.	.	.	32g/JJJ)	.
4C/	4cc 4g 4e/	.	4cc\	.
4r	4r	.	(>32dd\LLL	[
.	.	.	32cc\	.
.	.	.	32dd\	.
.	.	.	32cc\	.
.	.	.	32dd\	.
.	.	.	32cc\	.
.	.	.	32dd\	.
.	.	.	32cc\JJJ)	.
!!LO:LB:g=original
=3	=3	=3	=3	=3
!	!	!	!	!LO:HP:b
(<4C 4CC/	(>4ee 4cc 4g/	.	(>4ee\	>
4EE/	4cc 4g 4e/	.	4cc\	.
4GG/	4g 4e 4c/	.	4g/	]
4C\)	4e 4c 4G</)	.	4e/)	.
=4	=4	=4	=4	=4
4D\	4d 4A< 4F</	.	4d/	.
4r	4r	.	(<32e/LLL	.
.	.	.	32d/	.
.	.	.	32e/	.
.	.	.	32d/	.
.	.	.	32e/	.
.	.	.	32d/	.
.	.	.	32e/	.
.	.	.	32d/JJJ)	.
!	!	!	!	!LO:HP:b
4D\	4f 4d 4A/	.	4f/	<
4r	4r	.	(<32g/LLL	.
.	.	.	32f/	.
.	.	.	32g/	.
.	.	.	32f/	.
.	.	.	32g/	.
.	.	.	32f/	.
.	.	.	32g/	.
.	.	.	32f/JJJ)	.
=5	=5	=5	=5	=5
4D\	4a 4f 4d/	.	4a/	.
4r	4r	.	(<32b-X/LLL	.
.	.	.	32a/	.
.	.	.	32b-/	.
.	.	.	32a/	.
.	.	.	32b-/	.
.	.	.	32a/	.
.	.	.	32b-/	.
.	.	.	32a/JJJ)	.
4D\	4dd 4a 4f/	.	4dd\	.
4r	4r	.	(>32ee\LLL	[
.	.	.	32dd\	.
.	.	.	32ee\	.
.	.	.	32dd\	.
.	.	.	32ee\	.
.	.	.	32dd\	.
.	.	.	32ee\	.
.	.	.	32dd\JJJ)	.
!!LO:LB:g=original
=6	=6	=6	=6	=6
!	!	!	!	!LO:HP:b
(<4DD/	(>4ff 4dd 4a\	.	(>4ff\	>
4FF/	4dd 4a 4f/	.	4dd\	.
4C/	4a 4f 4d/	.	4a/	.
4D\)	4f 4d 4A/)	.	4f/)	]
=7	=7	=7	=7	=7
4E\	4e 4B 4G</	.	4e/	.
4r	4r	.	(<32f#X/LLL	.
.	.	.	32e/	.
.	.	.	32f#/	.
.	.	.	32e/	.
.	.	.	32f#/	.
.	.	.	32e/	.
!	!	!	!	!LO:HP:b
.	.	.	32f#/	<
.	.	.	32e/JJJ)	.
4E\	4g 4e 4B/	.	4g/	.
4r	4r	.	(<32a/LLL	.
.	.	.	32g/	.
.	.	.	32a/	.
.	.	.	32g/	.
.	.	.	32a/	.
.	.	.	32g/	.
.	.	.	32a/	.
.	.	.	32g/JJJ)	.
=8	=8	=8	=8	=8
4E\	4b 4g 4e/	.	4b\	.
4r	4r	.	(>32cc\LLL	.
.	.	.	32b\	.
.	.	.	32cc\	.
.	.	.	32b\	.
.	.	.	32cc\	.
.	.	.	32b\	.
.	.	.	32cc\	.
.	.	.	32b\JJJ)	.
4E\	4ee 4b 4g\	.	4ee\	.
4r	4r	.	(>32ff#X\LLL	.
.	.	.	32ee\	.
.	.	.	32ff#\	.
.	.	.	32ee\	.
.	.	.	32ff#\	[
.	.	.	32ee\	.
.	.	.	32ff#\	.
.	.	.	32ee\JJJ)	.
!!LO:LB:g=original
=9	=9	=9	=9	=9
(<4EE/	(>4gg 4ee 4b\	.	(>4gg\	>
4GG/	4ee 4b 4g\	.	4ee\	.
4BB/	4b 4g 4e/	.	4b\	.
4E\)	4g 4e 4B/)	.	4g/)	]
=10	=10	=10	=10	=10
4F\	4fn 4c 4A</	.	4fn/	.
4r	4r	.	(<32g/LLL	.
.	.	.	32f/	.
.	.	.	32g/	.
.	.	.	32f/	.
.	.	.	32g/	.
.	.	.	32f/	.
.	.	.	32g/	.
!	!	!	!	!LO:HP:b
.	.	.	32f/JJJ)	<
4F\	4a 4f 4c/	.	4a/	.
4r	4r	.	(<32b-X/LLL	.
.	.	.	32a/	.
.	.	.	32b-/	.
.	.	.	32a/	.
.	.	.	32b-/	.
.	.	.	32a/	.
.	.	.	32b-/	.
.	.	.	32a/JJJ)	.
=11	=11	=11	=11	=11
4F\	4cc 4a 4f/	.	4cc\	.
4r	4r	.	(>32dd\LLL	.
.	.	.	32cc\	.
.	.	.	32dd\	.
.	.	.	32cc\	.
.	.	.	32dd\	.
.	.	.	32cc\	.
.	.	.	32dd\	.
.	.	.	32cc\JJJ)	.
4F\	4ff 4cc 4a\	.	4ff\	.
4r	4r	.	(32gg\LLL	.
.	.	.	32ff\	.
.	.	.	32gg\	.
.	.	.	32ff\	.
.	.	.	32gg\	.
.	.	.	32ff\	.
.	.	.	32gg\	.
.	.	.	32ff\JJJ)	[[
!!LO:PB:g=original
=12	=12	=12	=12	=12
!	!	!	!	!LO:HP:b
(<4FF/	(>4aa 4ff 4cc\	.	(>4aa\	>
4AA/	4ff 4cc 4a\	.	4ff\	.
4C/	4cc 4a 4f\	.	4cc\)	.
4F\)	4a 4f 4c/)	.	4a\	]
=13	=13	=13	=13	=13
4F 4FF/	4aa 4ff 4cc\	.	4aa\	.
4r	4r	.	(>32bb-X\LLL	>
.	.	.	32aa\	.
.	.	.	32bb-\	.
.	.	.	32aa\	.
.	.	.	32bb-\	.
.	.	.	32aa\	.
.	.	.	32bb-\	.
.	.	.	32aa\JJJ)	.
4F 4FF/	4ff 4cc 4a\	.	4ff\	.
4r	4r	.	(>32gg\LLL	.
.	.	.	32ff\	.
.	.	.	32gg\	.
.	.	.	32ff\	.
.	.	.	32gg\	.
.	.	.	32ff\	.
.	.	.	32gg\	.
.	.	.	32ff\JJJ)	.
=14	=14	=14	=14	=14
4F 4FF/	4cc 4a 4f/	.	4cc\	.
4r	4r	.	(>32dd\LLL	.
.	.	.	32cc\	.
.	.	.	32dd\	.
.	.	.	32cc\	.
.	.	.	32dd\	]
.	.	.	32cc\	.
.	.	.	32dd\	.
.	.	.	32cc\JJJ)	.
!!LO:LB:g=original
4F 4FF/	4a 4f 4c/	.	4a/	.
4r	4r	.	(<32b-X/LLL	.
.	.	.	32a/	.
.	.	.	32b-/	.
.	.	.	32a/	.
.	.	.	32b-/	.
.	.	.	32a/	.
.	.	.	32b-/	.
.	.	.	32a/JJJ)	.
=15	=15	=15	=15	=15
!	!	!	!	!LO:HP:b
4F 4FF\	(>4f 4c 4A</	.	(>4f/	<
4C/	4a 4f 4c/	.	4a/	.
4AA/	4cc 4a 4f\	.	4cc\	.
4FF/	4ff 4cc 4a\)	.	4ff\)	[[
=16	=16	=16	=16	=16
4EE/	4gg 4b\	.	4gg\	.
!	!	!	!	!LO:HP:b
4r	4r	.	(>32aa\LLL	>
.	.	.	32gg\	.
.	.	.	32aa\	.
.	.	.	32gg\	.
.	.	.	32aa\	.
.	.	.	32gg\	.
.	.	.	32aa\	.
.	.	.	32gg\JJJ)	.
4E 4EE/	4ee 4g/	.	4ee\	.
4r	4r	.	(32ff#X\LLL	.
.	.	.	32ee\	.
.	.	.	32ff#\	.
.	.	.	32ee\	.
.	.	.	32ff#\	.
.	.	.	32ee\	.
.	.	.	32ff#\	.
.	.	.	32ee\JJJ)	]]
!!LO:LB:g=original
=17	=17	=17	=17	=17
4E 4EE/	4b 4g/	.	4b\	.
4r	4r	.	(>32cc\LLL	.
.	.	.	32b\	.
.	.	.	32cc\	.
.	.	.	32b\	.
.	.	.	32cc\	.
.	.	.	32b\	.
.	.	.	32cc\	.
.	.	.	32b\JJJ)	.
4E 4EE/	4g 4B/	.	4g/	.
4r	4r	.	(<32a/LLL	.
.	.	.	32g/	.
.	.	.	32a/	.
.	.	.	32g/	.
.	.	.	32a/	.
.	.	.	32g/	.
.	.	.	32a/	.
.	.	.	32g/JJJ)	.
=18	=18	=18	=18	=18
!	!	!	!	!LO:HP:b
4E\	(>4e 4B 4G</	.	(>4e/	<
4BB/	4g 4e 4B/	.	4g/	.
4GG/	4b 4g 4e/	.	4b\	.
4EE/	4ee 4b 4g/)	.	4ee\)	[
=19	=19	=19	=19	=19
4DD/	4ff 4a\	.	4ffn\	.
!	!	!	!	!LO:HP:b
4r	4r	.	(>32gg\LLL	>
.	.	.	32ff\	.
.	.	.	32gg\	.
.	.	.	32ff\	.
.	.	.	32gg\	.
.	.	.	32ff\	.
.	.	.	32gg\	.
.	.	.	32ff\JJJ)	.
4D 4DD/	4dd 4f/	.	4dd\	.
4r	4r	.	(>32ee\LLL	.
.	.	.	32dd\	.
.	.	.	32ee\	.
.	.	.	32dd\	.
.	.	.	32ee\	.
.	.	.	32dd\	.
.	.	.	32ee\	.
.	.	.	32dd\JJJ)	]]
!!LO:LB:g=original
=20	=20	=20	=20	=20
4D 4DD/	4a 4f/	.	4a/	.
4r	4r	.	(<32b-X/LLL	.
.	.	.	32a/	.
.	.	.	32b-/	.
.	.	.	32a/	.
.	.	.	32b-/	.
.	.	.	32a/	.
.	.	.	32b-/	.
.	.	.	32a/JJJ)	.
4D 4DD/	4f 4A/	.	4f/	.
4r	4r	.	(<32g/LLL	.
.	.	.	32f/	.
.	.	.	32g/	.
.	.	.	32f/	.
.	.	.	32g/	.
.	.	.	32f/	.
.	.	.	32g/	.
.	.	.	32f/JJJ)	.
=21	=21	=21	=21	=21
!	!	!	!	!LO:HP:b
4D 4FF\	(>4d 4A 4F</	.	(>4d/	<
4AA/	4f 4d 4A/	.	4f/	.
4FF/	4a 4f 4d/	.	4a/	.
4DD/	4dd 4a 4f/	.	4dd\)	.
=22	=22	=22	=22	=22
4CC/	4ee 4g/)	.	4ee\	[
4r	4r	.	(>32ff\LLL	.
.	.	.	32ee\	.
.	.	.	32ff\	.
!	!	!	!	!LO:HP:b
.	.	.	32ee\	>
.	.	.	32ff\	.
.	.	.	32ee\	.
.	.	.	32ff\	.
.	.	.	32ee\JJJ)	.
4C 4CC/	4cc 4e/	.	4cc\	.
4r	4r	.	(>32dd\LLL	.
.	.	.	32cc\	.
.	.	.	32dd\	.
.	.	.	32cc\	.
.	.	.	32dd\	.
.	.	.	32cc\	.
.	.	.	32dd\	.
.	.	.	32cc\JJJ)	]]
!!LO:PB:g=original
=23	=23	=23	=23	=23
4C 4CC/	4g 4e/	.	4g/	.
4r	4r	.	(<32a/LLL	.
.	.	.	32g/	.
.	.	.	32a/	.
.	.	.	32g/	.
.	.	.	32a/	.
.	.	.	32g/	.
.	.	.	32a/	.
.	.	.	32g/JJJ)	.
4C 4CC\	4e 4c 4G</	.	4e/	.
4r	4r	.	(<32f/LLL	.
.	.	.	32e/	.
.	.	.	32f/	.
.	.	.	32e/	.
.	.	.	32f/	.
.	.	.	32e/	.
.	.	.	32f/	.
.	.	.	32e/JJJ)	.
=24	=24	=24	=24	=24
1C 1CC	1c 1G< 1E<;>	.	1c;>	.
==	==	==	==	==
*-	*-	*-	*-	*-
!!!system-decoration: s1{(s2,s3)}
!!!RDF**kern: > = above
!!!RDF**kern: < = below
!!!EED: Antoni Szymański
!!!EEV: 2021-06-03
!!!ENC: Tomasz Grochalski
!!!END: 2021-05-18
